Adwaita++/actions/22/kdenlive-align-vert.svg

<svg height="22" viewBox="0 0 22 22" width="22" xmlns="http://www.w3.org/2000/svg">
  <path d="m4 0 4 7 4-7zm4 7h-4v2h4 4v-2zm0 2-4 7h8z" fill="#444" transform="translate(3 3)"/>
</svg>

<svg xmlns="http://www.w3.org/2000/svg" width="22" height="22" viewBox="0 0 22 22">
 <defs>
  <style id="current-color-scheme" type="text/css">
   .ColorScheme-Text { color:#444444; } .ColorScheme-Highlight { color:#4285f4; }
  </style>
 </defs>
 <path style="fill:currentColor" class="ColorScheme-Text" d="M 4 0 L 8 7 L 12 0 L 4 0 z M 8 7 L 4 7 L 4 9 L 8 9 L 12 9 L 12 7 L 8 7 z M 8 9 L 4 16 L 12 16 L 8 9 z" transform="translate(3 3)"/>
</svg>
